assets/svg/1F63A.svg

<svg xmlns="http://www.w3.org/2000/svg" viewBox="0 0 64 64" enable-background="new 0 0 64 64"><path fill="#7094a6" d="m50.04 10.595c-.985 4.135 9.02 12.771 11.932 13.466 2.908.693 1.555-8.157 1.421-13.12-.136-5.104-.014-10.268-2.921-10.965-2.912-.69-9.446 6.485-10.432 10.621"/><path fill="#eda75a" d="m50.53 13.825c-.862 3.591 7.828 11.09 10.356 11.693 2.525.599 1.354-7.086 1.236-11.392-.122-4.434-.014-8.918-2.545-9.522-2.523-.607-8.193 5.631-9.05 9.221"/><path fill="#7094a6" d="m14.405 10.595c.986 4.135-9.02 12.771-11.933 13.466-2.913.693-1.559-8.157-1.425-13.12.141-5.104.017-10.268 2.928-10.964 2.906-.691 9.442 6.484 10.43 10.62"/><path fill="#eda75a" d="m14.12 13.825c.854 3.591-7.831 11.09-10.359 11.693-2.526.599-1.354-7.086-1.24-11.392.126-4.434.014-8.918 2.542-9.522 2.528-.607 8.197 5.631 9.06 9.221"/><path fill="#87b1c1" d="m63.822 31.354c0 17.546-14.22 31.766-31.77 31.766-17.552 0-31.766-14.22-31.766-31.766 0-17.552 14.214-29.762 31.766-29.762 17.551 0 31.77 12.211 31.77 29.762"/><g fill="#fff"><path d="m27.474 27.879c0 5.338-2.887 9.672-6.457 9.672-3.565 0-6.462-4.334-6.462-9.672 0-5.343 2.897-9.67 6.462-9.67 3.569 0 6.457 4.328 6.457 9.67"/><path d="m49.32 27.879c0 5.338-2.89 9.672-6.459 9.672-3.563 0-6.459-4.334-6.459-9.672 0-5.343 2.896-9.67 6.459-9.67 3.57 0 6.459 4.328 6.459 9.67"/></g><path fill="#7094a6" d="m15.402 40.639c-5.626-12.08-5.274-24.05-.187-34.796-8.855 4.807-14.928 14.407-14.928 25.511 0 17.546 14.214 31.766 31.766 31.766.315 0 .618-.033.933-.047-7.286-6.128-13.425-13.508-17.584-22.434"/><g fill="#25333a"><path d="m25.19 27.879c0 2.798-1.87 5.061-4.176 5.061-2.312 0-4.176-2.263-4.176-5.061s1.864-5.065 4.176-5.065c2.306 0 4.176 2.267 4.176 5.065"/><path d="m47.04 27.879c0 2.798-1.863 5.061-4.178 5.061-2.307 0-4.174-2.263-4.174-5.061s1.867-5.065 4.174-5.065c2.315 0 4.178 2.267 4.178 5.065"/></g><path fill="#394c54" d="m26.633 34.499c0-2.574 2.196-2.531 5.187-2.531 2.993 0 5.654-.043 5.654 2.531 0 2.582-2.431 4.674-5.422 4.674s-5.419-2.092-5.419-4.674"/><g fill="#fff"><path d="m22.24 25.534c0 1.505-.547 2.723-1.22 2.723-.679 0-1.228-1.218-1.228-2.723 0-1.503.549-2.72 1.228-2.72.673 0 1.22 1.216 1.22 2.72"/><path d="m44.09 25.534c0 1.505-.549 2.723-1.229 2.723-.673 0-1.224-1.218-1.224-2.723 0-1.503.551-2.72 1.224-2.72.68 0 1.229 1.216 1.229 2.72"/></g><path fill="#394c54" d="m56.797 40.822c0 11.02-11.1 19.972-24.784 19.972-13.669 0-24.773-8.946-24.773-19.972"/><path fill="#fff" d="m53.55 42.19c0 4.526-9.666 8.19-21.58 8.19-11.91 0-21.574-3.664-21.574-8.19"/><path fill="#394c54" d="m45.4 45.21c0 4.896-6.25 8.868-13.959 8.868-7.703 0-13.96-3.972-13.96-8.868"/><g fill="#5e7d89"><path d="m24 37.876c-.043.758-.564 1.344-1.167 1.311l-16.985-.96c-.6-.035-1.055-.677-1.01-1.435l0 0c.043-.758.567-1.345 1.167-1.311l16.985.96c.602.034 1.054.677 1.01 1.435l0 0"/><path d="m23.335 41.06c.124.714-.179 1.363-.675 1.45l-14.04 2.431c-.496.087-1-.421-1.124-1.137l0 0c-.124-.713.179-1.362.675-1.448l14.03-2.433c.496-.086 1 .422 1.124 1.137l0 0"/><path d="m40.1 37.573c.043.758.564 1.344 1.167 1.311l16.984-.961c.601-.035 1.055-.677 1.012-1.435l0 0c-.043-.757-.566-1.344-1.167-1.311l-16.984.961c-.602.034-1.055.677-1.012 1.435l0 0"/><path d="m40.774 40.755c-.124.715.179 1.364.675 1.45l14.03 2.433c.496.087 1-.421 1.124-1.138l0 0c.124-.712-.18-1.361-.676-1.448l-14.03-2.432c-.496-.087-1 .421-1.124 1.135l0 0"/></g></svg>

<?xml version="1.0" encoding="UTF-8" standalone="no"?>
<!-- Generator: Adobe Illustrator 16.0.0, SVG Export Plug-In . SVG Version: 6.00 Build 0)  -->

<svg
   xmlns:dc="http://purl.org/dc/elements/1.1/"
   xmlns:cc="http://creativecommons.org/ns#"
   xmlns:rdf="http://www.w3.org/1999/02/22-rdf-syntax-ns#"
   xmlns:svg="http://www.w3.org/2000/svg"
   xmlns="http://www.w3.org/2000/svg"
   xmlns:sodipodi="http://sodipodi.sourceforge.net/DTD/sodipodi-0.dtd"
   xmlns:inkscape="http://www.inkscape.org/namespaces/inkscape"
   version="1.1"
   id="Layer_1"
   x="0px"
   y="0px"
   width="64px"
   height="64px"
   viewBox="0 0 64 64"
   enable-background="new 0 0 64 64"
   xml:space="preserve"
   inkscape:version="0.48.5 r10040"
   sodipodi:docname="1F63A.svg"
   inkscape:export-filename="D:\TESTINGEMOJI\SVGTEST\1F63A.png"
   inkscape:export-xdpi="90"
   inkscape:export-ydpi="90"><metadata
   id="metadata5249"><rdf:RDF><cc:Work
       rdf:about=""><dc:format>image/svg+xml</dc:format><dc:type
         rdf:resource="http://purl.org/dc/dcmitype/StillImage" /><dc:title></dc:title></cc:Work></rdf:RDF></metadata><defs
   id="defs5247" /><sodipodi:namedview
   pagecolor="#ffffff"
   bordercolor="#666666"
   borderopacity="1"
   objecttolerance="10"
   gridtolerance="10"
   guidetolerance="10"
   inkscape:pageopacity="0"
   inkscape:pageshadow="2"
   inkscape:window-width="640"
   inkscape:window-height="480"
   id="namedview5245"
   showgrid="false"
   inkscape:zoom="3.6875"
   inkscape:cx="32"
   inkscape:cy="32"
   inkscape:window-x="616"
   inkscape:window-y="328"
   inkscape:window-maximized="0"
   inkscape:current-layer="Layer_1" />
<g
   id="g5135">
	<g
   id="g5137">
		<g
   id="g5139">
			<path
   fill="#7094A6"
   d="M50.037,10.595c-0.985,4.135,9.022,12.771,11.932,13.466c2.908,0.693,1.555-8.157,1.421-13.122     c-0.136-5.104-0.014-10.268-2.921-10.965C57.557-0.716,51.023,6.459,50.037,10.595z"
   id="path5141" />
		</g>
	</g>
	<g
   id="g5143">
		<g
   id="g5145">
			<path
   fill="#EDA75A"
   d="M50.535,13.825c-0.862,3.591,7.828,11.089,10.356,11.693c2.525,0.599,1.354-7.086,1.236-11.392     c-0.122-4.434-0.014-8.918-2.545-9.522C57.059,3.997,51.389,10.235,50.535,13.825z"
   id="path5147" />
		</g>
	</g>
	<g
   id="g5149">
		<g
   id="g5151">
			<path
   fill="#7094A6"
   d="M14.405,10.595c0.986,4.135-9.021,12.771-11.933,13.466c-2.913,0.693-1.559-8.157-1.425-13.122     C1.188,5.835,1.064,0.671,3.975-0.025C6.881-0.716,13.417,6.459,14.405,10.595z"
   id="path5153" />
		</g>
	</g>
	<g
   id="g5155">
		<g
   id="g5157">
			<path
   fill="#EDA75A"
   d="M14.125,13.825c0.854,3.591-7.831,11.089-10.359,11.693c-2.526,0.599-1.354-7.086-1.24-11.392     c0.126-4.434,0.014-8.918,2.542-9.522C7.596,3.997,13.265,10.235,14.125,13.825z"
   id="path5159" />
		</g>
	</g>
	<g
   id="g5161">
		<g
   id="g5163">
			<path
   fill="#87B1C1"
   d="M63.822,31.354c0,17.546-14.22,31.766-31.77,31.766c-17.552,0-31.766-14.22-31.766-31.766     c0-17.552,14.214-29.762,31.766-29.762C49.603,1.592,63.822,13.803,63.822,31.354z"
   id="path5165" />
		</g>
	</g>
	<g
   id="g5167">
		<g
   id="g5169">
			<path
   fill="#FFFFFF"
   d="M27.474,27.879c0,5.338-2.887,9.672-6.457,9.672c-3.565,0-6.462-4.334-6.462-9.672     c0-5.343,2.897-9.67,6.462-9.67C24.586,18.209,27.474,22.537,27.474,27.879z"
   id="path5171" />
		</g>
	</g>
	<g
   id="g5173">
		<g
   id="g5175">
			<path
   fill="#FFFFFF"
   d="M49.319,27.879c0,5.338-2.89,9.672-6.459,9.672c-3.563,0-6.459-4.334-6.459-9.672     c0-5.343,2.896-9.67,6.459-9.67C46.43,18.209,49.319,22.537,49.319,27.879z"
   id="path5177" />
		</g>
	</g>
	<g
   id="g5179">
		<g
   id="g5181">
			<g
   id="g5183">
				<path
   fill="#7094A6"
   d="M15.402,40.639C9.776,28.56,10.128,16.589,15.215,5.843C6.36,10.65,0.287,20.25,0.287,31.354      c0,17.546,14.214,31.766,31.766,31.766c0.315,0,0.618-0.033,0.933-0.047C25.7,56.945,19.561,49.565,15.402,40.639z"
   id="path5185" />
			</g>
		</g>
	</g>
	<g
   id="g5187">
		<g
   id="g5189">
			<path
   fill="#25333A"
   d="M25.193,27.879c0,2.798-1.87,5.061-4.176,5.061c-2.312,0-4.176-2.263-4.176-5.061     s1.864-5.065,4.176-5.065C23.323,22.814,25.193,25.081,25.193,27.879z"
   id="path5191" />
		</g>
	</g>
	<g
   id="g5193">
		<g
   id="g5195">
			<path
   fill="#25333A"
   d="M47.038,27.879c0,2.798-1.863,5.061-4.178,5.061c-2.307,0-4.174-2.263-4.174-5.061     s1.867-5.065,4.174-5.065C45.175,22.814,47.038,25.081,47.038,27.879z"
   id="path5197" />
		</g>
	</g>
	<g
   id="g5199">
		<g
   id="g5201">
			<path
   fill="#394C54"
   d="M26.633,34.499c0-2.574,2.196-2.531,5.187-2.531c2.993,0,5.654-0.043,5.654,2.531     c0,2.582-2.431,4.674-5.422,4.674S26.633,37.081,26.633,34.499z"
   id="path5203" />
		</g>
	</g>
	<g
   id="g5205">
		<g
   id="g5207">
			<path
   fill="#FFFFFF"
   d="M22.237,25.534c0,1.505-0.547,2.723-1.22,2.723c-0.679,0-1.228-1.218-1.228-2.723     c0-1.503,0.549-2.72,1.228-2.72C21.69,22.814,22.237,24.03,22.237,25.534z"
   id="path5209" />
		</g>
	</g>
	<g
   id="g5211">
		<g
   id="g5213">
			<path
   fill="#FFFFFF"
   d="M44.09,25.534c0,1.505-0.549,2.723-1.229,2.723c-0.673,0-1.224-1.218-1.224-2.723     c0-1.503,0.551-2.72,1.224-2.72C43.541,22.814,44.09,24.03,44.09,25.534z"
   id="path5215" />
		</g>
	</g>
	<g
   id="g5217">
		<g
   id="g5219">
			<path
   fill="#394C54"
   d="M56.797,40.822c0,11.025-11.097,19.972-24.784,19.972c-13.669,0-24.773-8.946-24.773-19.972"
   id="path5221" />
		</g>
	</g>
	<g
   id="g5223">
		<g
   id="g5225">
			<path
   fill="#FFFFFF"
   d="M53.554,42.191c0,4.526-9.666,8.19-21.58,8.19c-11.91,0-21.574-3.664-21.574-8.19"
   id="path5227" />
		</g>
	</g>
	<g
   id="g5229">
		<g
   id="g5231">
			<path
   fill="#394C54"
   d="M45.398,45.214c0,4.896-6.25,8.868-13.959,8.868c-7.703,0-13.96-3.972-13.96-8.868"
   id="path5233" />
		</g>
	</g>
	<g
   id="g5235">
		<path
   fill="#5E7D89"
   d="M24.004,37.876c-0.043,0.758-0.564,1.344-1.167,1.311l-16.985-0.96c-0.6-0.035-1.055-0.677-1.011-1.435    l0,0c0.043-0.758,0.567-1.345,1.167-1.311l16.985,0.96C23.595,36.475,24.047,37.118,24.004,37.876L24.004,37.876z"
   id="path5237" />
		<path
   fill="#5E7D89"
   d="M23.335,41.059c0.124,0.714-0.179,1.363-0.675,1.45L8.625,44.94c-0.496,0.087-1-0.421-1.124-1.137l0,0    c-0.124-0.713,0.179-1.362,0.675-1.448l14.035-2.433C22.707,39.836,23.211,40.344,23.335,41.059L23.335,41.059z"
   id="path5239" />
		<path
   fill="#5E7D89"
   d="M40.105,37.573c0.043,0.758,0.564,1.344,1.167,1.311l16.984-0.961c0.601-0.035,1.055-0.677,1.012-1.435    l0,0c-0.043-0.757-0.566-1.344-1.167-1.311l-16.984,0.961C40.515,36.172,40.062,36.815,40.105,37.573L40.105,37.573z"
   id="path5241" />
		<path
   fill="#5E7D89"
   d="M40.774,40.755c-0.124,0.715,0.179,1.364,0.675,1.45l14.035,2.433c0.496,0.087,1-0.421,1.124-1.138l0,0    c0.124-0.712-0.18-1.361-0.676-1.448L41.898,39.62C41.402,39.533,40.898,40.041,40.774,40.755L40.774,40.755z"
   id="path5243" />
	</g>
</g>
</svg>
